packages/sources/icons/src/vitamix/function-line.svg

<svg width="16" height="16" viewBox="0 0 16 16" fill="none" xmlns="http://www.w3.org/2000/svg">
<path fill-rule="evenodd" clip-rule="evenodd" d="M7.33333 2H2V7.33333H7.33333V2ZM7.33333 8.66667H2V14H7.33333V8.66667ZM8.66667 2H14V7.33333H8.66667V2ZM14 8.66667H8.66667V14H14V8.66667ZM10 3.33333V6H12.6667V3.33333H10ZM10 12.6667V10H12.6667V12.6667H10ZM3.33333 3.33333V6H6V3.33333H3.33333ZM3.33333 12.6667V10H6V12.6667H3.33333Z" fill="#001018"/>
</svg>

<svg width="16" height="16" fill="none" xmlns="http://www.w3.org/2000/svg"><path fill-rule="evenodd" clip-rule="evenodd" d="M7.333 2H2v5.333h5.333V2zm0 6.667H2V14h5.333V8.667zM8.667 2H14v5.333H8.667V2zM14 8.667H8.667V14H14V8.667zm-4-5.334V6h2.667V3.333H10zm0 9.334V10h2.667v2.667H10zM3.333 3.333V6H6V3.333H3.333zm0 9.334V10H6v2.667H3.333z" fill="#001018"/></svg>
